img/instagram.svg

<svg width="50" height="50" viewBox="0 0 50 50" fill="none" xmlns="http://www.w3.org/2000/svg">
<path d="M32.5001 24.9998C32.5001 26.9889 31.71 28.8965 30.3034 30.3031C28.8969 31.7096 26.9892 32.4998 25.0001 32.4998C23.011 32.4998 21.1033 31.7096 19.6968 30.3031C18.2903 28.8965 17.5001 26.9889 17.5001 24.9998C17.5001 24.5723 17.5451 24.1548 17.6226 23.7498H15.0001V33.7423C15.0001 34.4373 15.5626 34.9998 16.2576 34.9998H33.7451C34.0782 34.9991 34.3974 34.8663 34.6327 34.6306C34.868 34.3948 35.0001 34.0753 35.0001 33.7423V23.7498H32.3776C32.4551 24.1548 32.5001 24.5723 32.5001 24.9998ZM25.0001 29.9998C25.6569 29.9996 26.3072 29.8701 26.9139 29.6186C27.5206 29.3671 28.0719 28.9986 28.5362 28.534C29.0005 28.0695 29.3687 27.5181 29.6199 26.9112C29.8711 26.3044 30.0003 25.654 30.0001 24.9973C30 24.3405 29.8704 23.6902 29.6189 23.0835C29.3675 22.4767 28.9989 21.9255 28.5344 21.4612C28.0699 20.9969 27.5185 20.6287 26.9116 20.3775C26.3048 20.1263 25.6544 19.9971 24.9976 19.9973C23.6712 19.9976 22.3993 20.5248 21.4616 21.463C20.5239 22.4011 19.9973 23.6733 19.9976 24.9998C19.998 26.3262 20.5252 27.5981 21.4633 28.5358C22.4015 29.4735 23.6737 30.0001 25.0001 29.9998ZM31.0001 19.7498H33.9976C34.1968 19.7498 34.3878 19.6708 34.5288 19.5302C34.6699 19.3897 34.7495 19.1989 34.7501 18.9998V16.0023C34.7501 15.8027 34.6708 15.6113 34.5297 15.4702C34.3886 15.329 34.1972 15.2498 33.9976 15.2498H31.0001C30.8005 15.2498 30.6091 15.329 30.468 15.4702C30.3269 15.6113 30.2476 15.8027 30.2476 16.0023V18.9998C30.2501 19.4123 30.5876 19.7498 31.0001 19.7498ZM25.0001 0.999756C18.6349 0.999756 12.5304 3.52832 8.02956 8.02919C3.52869 12.5301 1.00012 18.6346 1.00012 24.9998C1.00012 31.365 3.52869 37.4694 8.02956 41.9703C12.5304 46.4712 18.6349 48.9998 25.0001 48.9998C28.1518 48.9998 31.2727 48.379 34.1845 47.1729C37.0963 45.9667 39.7421 44.1989 41.9707 41.9703C44.1993 39.7417 45.9671 37.096 47.1732 34.1842C48.3793 31.2723 49.0001 28.1515 49.0001 24.9998C49.0001 21.848 48.3793 18.7272 47.1732 15.8154C45.9671 12.9035 44.1993 10.2578 41.9707 8.02919C39.7421 5.80059 37.0963 4.03276 34.1845 2.82665C31.2727 1.62053 28.1518 0.999756 25.0001 0.999756ZM37.5001 34.7223C37.5001 36.2498 36.2501 37.4998 34.7226 37.4998H15.2776C13.7501 37.4998 12.5001 36.2498 12.5001 34.7223V15.2773C12.5001 13.7498 13.7501 12.4998 15.2776 12.4998H34.7226C36.2501 12.4998 37.5001 13.7498 37.5001 15.2773V34.7223Z" fill="white"/>
</svg>

<svg width="50" height="50" fill="none" xmlns="http://www.w3.org/2000/svg"><path d="M32.5 25a7.5 7.5 0 1 1-15 0c0-.428.045-.845.123-1.25H15v9.992c0 .695.563 1.258 1.258 1.258h17.487A1.258 1.258 0 0 0 35 33.742V23.75h-2.622c.077.405.122.822.122 1.25ZM25 30a5.002 5.002 0 1 0-.003-10.003A5.002 5.002 0 0 0 25 30Zm6-10.25h2.998a.752.752 0 0 0 .752-.75v-2.998a.753.753 0 0 0-.752-.752H31a.752.752 0 0 0-.752.752V19c.002.412.34.75.752.75ZM25 1a24 24 0 1 0 0 48 24 24 0 0 0 0-48Zm12.5 33.722a2.786 2.786 0 0 1-2.777 2.778H15.278a2.786 2.786 0 0 1-2.778-2.778V15.277a2.786 2.786 0 0 1 2.778-2.777h19.445a2.786 2.786 0 0 1 2.777 2.777v19.445Z" fill="#fff"/></svg>
